X: 104
T:Tom Clair's Maggie (#300)
M:4/4
L:1/8
S:noted from Clair's playing by Capt. F. O'Neill
R:Reel
K:G
B|:"tr"E2 BE dEBE|"tr"E2 BE AFDF|1"tr"E2 BE d2 d2|e2 dB AFDF:|
2GFEF GFGB|dedB AFDF||(3Bcd ef e3 g|
fd ~d2 fd ~d2|g2 "tr"gf g2 g2|afdf afdf|
a2 "tr"af g2 eg|e2 ef B3 A|DGGF GABd|(3efg dB AFDF||
%
% The first part of Mr. Clair's tune differs but little from "Drowsy 
% Maggie" in common circumstances.

